svgs/sharp-regular/file-dashed-line.svg

<svg xmlns="http://www.w3.org/2000/svg" viewBox="0 0 640 512"><!--! Font Awesome Pro 6.6.0 by @fontawesome - https://fontawesome.com License - https://fontawesome.com/license (Commercial License) Copyright 2024 Fonticons, Inc. --><path d="M464 464l-288 0 0-96-48 0 0 96 0 48 48 0 288 0 48 0 0-48 0-96-48 0 0 96zm0-304l0 96 48 0 0-128L384 0 176 0 128 0l0 48 0 208 48 0 0-208 176 0 0 112 112 0zM56 288l-24 0 0 48 24 0 112 0 24 0 0-48-24 0L56 288zm224 0l-24 0 0 48 24 0 80 0 24 0 0-48-24 0-80 0zm192 0l-24 0 0 48 24 0 112 0 24 0 0-48-24 0-112 0z"/></svg>

<svg xmlns="http://www.w3.org/2000/svg" viewBox="0 0 640 512"><!--! Font Awesome Pro 6.4.2 by @fontawesome - https://fontawesome.com License - https://fontawesome.com/license (Commercial License) Copyright 2023 Fonticons, Inc. --><path d="M464 464H176V368H128v96 48h48H464h48V464 368H464v96zm0-304v96h48V128L384 0H176 128V48 256h48V48H352V160H464zM56 288H32v48H56 168h24V288H168 56zm224 0H256v48h24 80 24V288H360 280zm192 0H448v48h24H584h24V288H584 472z"/></svg>
